images/scalability.svg

<svg height="169" viewBox="0 0 181 169" width="181" xmlns="http://www.w3.org/2000/svg"><g fill="none" stroke="#000"><path d="m115.285 85.012v66.988l-88.285-89 88.285-89v66.988h36.715v44.024z" transform="matrix(0 1 -1 0 153.5 -25.5)"/><path d="m115.285 104.012v61.988l-88.285-89 88.285-89v61.988h36.715v54.024z" transform="matrix(0 1 -1 0 167.5 -11.5)"/><path d="m115.285 123.012v56.988l-88.285-89 88.285-89v56.988h36.715v64.024z" transform="matrix(0 1 -1 0 181.5 2.5)"/><path d="m115.285 142.012v51.988l-88.285-89 88.285-89v51.988h36.715v74.024z" transform="matrix(0 1 -1 0 195.5 16.5)"/></g></svg>

<svg xmlns="http://www.w3.org/2000/svg" width="181" height="169" viewBox="0 0 181 169">
    <g fill="none" stroke="#000">
        <path d="M115.285 85.012L115.285 152 27 63 115.285 -26 115.285 40.988 152 40.988 152 85.012z" transform="translate(1 1) rotate(90 89.5 63)"/>
        <path d="M115.285 104.012L115.285 166 27 77 115.285 -12 115.285 49.988 152 49.988 152 104.012z" transform="translate(1 1) rotate(90 89.5 77)"/>
        <path d="M115.285 123.012L115.285 180 27 91 115.285 2 115.285 58.988 152 58.988 152 123.012z" transform="translate(1 1) rotate(90 89.5 91)"/>
        <path d="M115.285 142.012L115.285 194 27 105 115.285 16 115.285 67.988 152 67.988 152 142.012z" transform="translate(1 1) rotate(90 89.5 105)"/>
    </g>
</svg>
